X: 34942
T: Rockwood, The
R: jig
M: 6/8
K: Ddorian
A,2D DE/F/G|AGA cAG|AGA cAG|AGA cGE|
A,2D DE/F/G|AGA cAG|AGA dcG|AGA fec|
A,2D DE/F/G|AGA c2c|A2A c2c|AGF EDC|
A,2D DE/F/G|AGA cAG|AGA dcG|AGA fec||
d2d de/f/g|age c'ge|bge age|ded cAG|
A2d de/f/g|age c'ge|bge age|ded d2e|
d2d de/f/g|age c'ge|bge a3|g3 edc|
A2d de/f/g|age c'ge|bge age|ded d3||
F,3 G,3|A,3 C3|DAA AGF|G3 FEC|
F,2F, G,G,G,|A,A,A, CCC|FcF cFG|FEC D2D|
F,3 G,3|A,3 C3|F3 G3|A3 c3|
c'ge bge|c'ge bge|c'ge bge|ddd d3||

